X:1
T:Title
%%score { ( 1 2 ) | ( 3 4 ) }
L:1/8
M:4/4
K:G
V:1 treble nm="Grand Piano"
V:2 treble 
V:3 bass 
V:4 bass 
V:1
 z4 z2[Q:1/4=100] z A/[DGB]/ | [EGc]2 [EGc][EGc] [Ge]2 [Gd][EGc] | B d3 z2 dd | %3
 [Ge]2 [Ge][Ge] d2 cB | [FA]6 GA | B2 Bc d2 dd | [Ge]4 d2 GA | B d3 [DGB]2 [CFA]2 | %8
[M:3/4] [B,DG]6 |[M:1/4] z2 |[M:4/4] z2 [EG]>[EG] [EG][EG] (3GAc | B6 z2 | A6 z2 | G6 (3GAB | %14
 c6 z2 | B6 z2 | [Bd]3 [Bd] [GBd][DAc][DGB][CDA] |[M:7/8] G-G-G- G- G3 |] %18
V:2
 z4 z2 G2 | x8 | x8 | x8 | x8 | x8 | x8 | x8 |[M:3/4] x6 |[M:1/4] x2 |[M:4/4] x8 | z2 G>G GGGB | %12
 z2 F>F FDEF | x8 | z2 [EG]>[EG] [EG][EG] (3GAc | z2 G>G GGGB | x8 |[M:7/8] [B,D]DE E D3 |] %18
V:3
 z4 z2 [G,D]>G, | C,2 C,C, [C,C]2 [C,C]C, | [G,D] [G,B,G]3 z2 [G,B,G][G,B,G] | %3
 [C,C]2 [C,C][C,C][K:treble] [G,B,G]2 [G,DG][G,DG] | [D,D]6 [G,B,][K:treble][G,CG] | %5
 [G,DG]2 [G,DG][G,CG] [G,B,G]2 [G,B,G][G,B,G] | [C,C]4[K:treble] [G,B,G]2 [G,B,][G,CG] | %7
 [G,DG] [G,B,G]3[K:bass] D,2 D,2 |[M:3/4] G,,6 |[M:1/4][K:treble] (3GAB |[M:4/4] c6[K:bass] z2 | %11
 z2 [G,D]>[G,D] [G,D][G,D] z2 | z2 [D,D]>[D,D] [D,D]D,[D,CD][D,CD] | [G,B,D]6 z2 | %14
 z2 C,>C, C,C, z2 | z2[K:treble] [G,D]>[G,D] [G,D][G,D][G,B,D][G,DG] | %16
 [G,G]3 [G,G][K:bass] D,D,D,D, |[M:7/8] z B,C C B,3 |] %18
V:4
 x8 | x8 | x8 | x4[K:treble] x4 | x7[K:treble] x | x8 | x4[K:treble] x4 | x4[K:bass] x4 | %8
[M:3/4] x6 |[M:1/4][K:treble] x2 |[M:4/4] z2[K:bass] C,>C, C,C, z2 | x8 | x8 | x8 | x8 | %15
 x2[K:treble] x6 | x4[K:bass] x4 |[M:7/8] G,,-G,,-G,,- G,,- G,,3 |] %18

